build/category/PickupOutline.svg

<svg xmlns="http://www.w3.org/2000/svg" fill="none" viewBox="0 0 24.12 24" focusable="false"><path d="M0 0H24.119V24H0z"/><path fill="#74767B" fill-rule="evenodd" d="M6.00641 5.13429C6.37416 5.01232 6.76713 5.23399 6.85081 5.61062L9.2103 16.2303C9.65243 18.2203 11.6466 19.4645 13.6394 18.9936L19.3123 17.6533C19.6633 17.5704 19.8803 17.22 19.797 16.8707C19.7136 16.5215 19.3615 16.3056 19.0105 16.3885L13.3376 17.7288C12.0546 18.0319 10.7706 17.2309 10.486 15.9497L8.12648 5.32999C7.87544 4.20011 6.69652 3.53508 5.59327 3.901L4.41071 4.29324C4.06845 4.40676 3.88348 4.77486 3.99757 5.11543C4.11165 5.45599 4.48159 5.64004 4.82385 5.52652L6.00641 5.13429ZM7.52563 20.5C8.35656 20.5 9.03017 19.8297 9.03017 19.0029C9.03017 18.1761 8.35656 17.5058 7.52563 17.5058C6.69469 17.5058 6.02108 18.1761 6.02108 19.0029C6.02108 19.8297 6.69469 20.5 7.52563 20.5ZM9.82114 6.52762C9.65946 5.79959 10.1215 5.079 10.8531 4.91812L15.0105 4.00396C15.7421 3.84308 16.4663 4.30284 16.628 5.03086L18.5453 13.6642C18.707 14.3923 18.245 15.1128 17.5133 15.2737L13.356 16.1879C12.6243 16.3488 11.9001 15.889 11.7385 15.161L9.82114 6.52762ZM11.1351 6.18749C11.108 6.19345 11.0908 6.22014 11.0968 6.2471L11.9076 9.89795L16.1625 8.95962L15.3523 5.31137C15.3463 5.28441 15.3195 5.26738 15.2924 5.27334L11.1351 6.18749ZM16.4444 10.229L12.1895 11.1673L13.0142 14.8805C13.0201 14.9074 13.047 14.9245 13.0741 14.9185L17.2314 14.0044C17.2585 13.9984 17.2756 13.9717 17.2696 13.9447L16.4444 10.229Z"/></svg>

<svg xmlns="http://www.w3.org/2000/svg" fill="none" viewBox="0 0 24.12 24" focusable="false"><path fill="#74767B" fill-rule="evenodd" d="M6 5.13c.37-.12.76.1.85.48l2.36 10.62c.44 1.99 2.43 3.23 4.42 2.76l5.68-1.34c.35-.08.57-.44.48-.78a.65.65 0 0 0-.78-.49l-5.68 1.34c-1.28.31-2.56-.49-2.85-1.78L8.12 5.32A1.957 1.957 0 0 0 5.59 3.9l-1.18.39c-.35.11-.53.48-.42.82.12.34.49.53.83.41zM7.52 20.5c.83 0 1.51-.68 1.51-1.5 0-.83-.68-1.5-1.51-1.5s-1.5.67-1.5 1.5c0 .82.67 1.5 1.5 1.5m2.3-13.98c-.17-.73.3-1.45 1.03-1.61L15.01 4c.73-.16 1.45.3 1.61 1.03l1.92 8.63c.16.73-.3 1.45-1.03 1.61l-4.16.91c-.73.16-1.46-.3-1.62-1.02zm1.31-.34c-.03.01-.04.04-.04.06l.81 3.65 4.26-.94-.81-3.64c-.01-.03-.04-.05-.06-.04zm5.31 4.04-4.26.94.83 3.72c.01.02.03.04.06.03l4.16-.91c.02-.01.04-.03.03-.06z"/></svg>
